static/img/kroki/401167807d3529292339724a34670631.svg

<?xml version="1.0" encoding="us-ascii" standalone="no"?><svg xmlns="http://www.w3.org/2000/svg" xmlns:xlink="http://www.w3.org/1999/xlink" contentStyleType="text/css" height="872px" preserveAspectRatio="none" style="width:535px;height:872px;" version="1.1" viewBox="0 0 535 872" width="535px" zoomAndPan="magnify"><defs/><g><!--class digitalocean_droplet--><g id="elem_digitalocean_droplet"><rect codeLine="22" fill="#3D176E" height="152.9766" id="digitalocean_droplet" rx="2.5" ry="2.5" style="stroke:#000D19;stroke-width:0.5;" width="231" x="141" y="712.73"/><ellipse cx="165" cy="732.6245" fill="#ADD1B2" rx="11" ry="11" style="stroke:#181818;stroke-width:1.0;"/><path d="M167.9688,738.2652 Q167.3906,738.562 166.75,738.7027 Q166.1094,738.8589 165.4063,738.8589 Q162.9063,738.8589 161.5781,737.2183 Q160.2656,735.562 160.2656,732.437 Q160.2656,729.312 161.5781,727.6558 Q162.9063,725.9995 165.4063,725.9995 Q166.1094,725.9995 166.75,726.1558 Q167.4063,726.312 167.9688,726.6089 L167.9688,729.3277 Q167.3438,728.7495 166.75,728.4839 Q166.1563,728.2027 165.5313,728.2027 Q164.1875,728.2027 163.5,729.2808 Q162.8125,730.3433 162.8125,732.437 Q162.8125,734.5308 163.5,735.6089 Q164.1875,736.6714 165.5313,736.6714 Q166.1563,736.6714 166.75,736.4058 Q167.3438,736.1245 167.9688,735.5464 L167.9688,738.2652 Z " fill="#000000"/><text fill="#D9B8FF" font-family="Helvetica" font-size="17" lengthAdjust="spacing" textLength="169" x="186" y="738.5098">digitalocean_droplet</text><line style="stroke:#000D19;stroke-width:0.5;" x1="142" x2="371" y1="752.5191" y2="752.5191"/><text fill="#D9B8FF" font-family="sans-serif" font-size="14" font-weight="bold" lengthAdjust="spacing" textLength="151" x="152" y="774.5142">droplet_backup_ids</text><text fill="#D9B8FF" font-family="sans-serif" font-size="14" lengthAdjust="spacing" textLength="58" x="303" y="774.5142">: string[]</text><text fill="#D9B8FF" font-family="sans-serif" font-size="14" font-weight="bold" lengthAdjust="spacing" textLength="131" x="152" y="800.8111">droplet_features</text><text fill="#D9B8FF" font-family="sans-serif" font-size="14" lengthAdjust="spacing" textLength="58" x="283" y="800.8111">: string[]</text><text fill="#D9B8FF" font-family="sans-serif" font-size="14" font-weight="bold" lengthAdjust="spacing" textLength="111" x="152" y="827.1079">droplet_image</text><text fill="#D9B8FF" font-family="sans-serif" font-size="14" lengthAdjust="spacing" textLength="48" x="263" y="827.1079">: string</text><text fill="#D9B8FF" font-family="sans-serif" font-size="14" font-weight="bold" lengthAdjust="spacing" textLength="72" x="152" y="853.4048">is_locked</text><text fill="#D9B8FF" font-family="sans-serif" font-size="14" lengthAdjust="spacing" textLength="65" x="224" y="853.4048">: boolean</text></g><!--class digitalocean_resource--><g id="elem_digitalocean_resource"><rect codeLine="28" fill="#3D176E" height="74.0859" id="digitalocean_resource" rx="2.5" ry="2.5" style="stroke:#000D19;stroke-width:0.5;" width="223" x="7" y="478.2"/><ellipse cx="22" cy="498.0945" fill="#ADD1B2" rx="11" ry="11" style="stroke:#181818;stroke-width:1.0;"/><path d="M24.9688,503.7352 Q24.3906,504.032 23.75,504.1727 Q23.1094,504.3289 22.4063,504.3289 Q19.9063,504.3289 18.5781,502.6883 Q17.2656,501.032 17.2656,497.907 Q17.2656,494.782 18.5781,493.1258 Q19.9063,491.4695 22.4063,491.4695 Q23.1094,491.4695 23.75,491.6258 Q24.4063,491.782 24.9688,492.0789 L24.9688,494.7977 Q24.3438,494.2195 23.75,493.9539 Q23.1563,493.6727 22.5313,493.6727 Q21.1875,493.6727 20.5,494.7508 Q19.8125,495.8133 19.8125,497.907 Q19.8125,500.0008 20.5,501.0789 Q21.1875,502.1414 22.5313,502.1414 Q23.1563,502.1414 23.75,501.8758 Q24.3438,501.5945 24.9688,501.0164 L24.9688,503.7352 Z " fill="#000000"/><text fill="#D9B8FF" font-family="Helvetica" font-size="17" lengthAdjust="spacing" textLength="181" x="41" y="503.9798">digitalocean_resource</text><line style="stroke:#000D19;stroke-width:0.5;" x1="8" x2="229" y1="517.9891" y2="517.9891"/><text fill="#D9B8FF" font-family="sans-serif" font-size="14" font-weight="bold" lengthAdjust="spacing" textLength="27" x="18" y="539.9842">urn</text><text fill="#D9B8FF" font-family="sans-serif" font-size="14" lengthAdjust="spacing" textLength="48" x="45" y="539.9842">: string</text></g><!--class instance--><g id="elem_instance"><rect codeLine="31" fill="#3D176E" height="152.9766" id="instance" rx="2.5" ry="2.5" style="stroke:#000D19;stroke-width:0.5;" width="263" x="265" y="438.76"/><ellipse cx="352.25" cy="458.6545" fill="#ADD1B2" rx="11" ry="11" style="stroke:#181818;stroke-width:1.0;"/><path d="M355.2188,464.2952 Q354.6406,464.592 354,464.7327 Q353.3594,464.8889 352.6563,464.8889 Q350.1563,464.8889 348.8281,463.2483 Q347.5156,461.592 347.5156,458.467 Q347.5156,455.342 348.8281,453.6858 Q350.1563,452.0295 352.6563,452.0295 Q353.3594,452.0295 354,452.1858 Q354.6563,452.342 355.2188,452.6389 L355.2188,455.3577 Q354.5938,454.7795 354,454.5139 Q353.4063,454.2327 352.7813,454.2327 Q351.4375,454.2327 350.75,455.3108 Q350.0625,456.3733 350.0625,458.467 Q350.0625,460.5608 350.75,461.6389 Q351.4375,462.7014 352.7813,462.7014 Q353.4063,462.7014 354,462.4358 Q354.5938,462.1545 355.2188,461.5764 L355.2188,464.2952 Z " fill="#000000"/><text fill="#D9B8FF" font-family="Helvetica" font-size="17" lengthAdjust="spacing" textLength="70" x="377.75" y="464.5398">instance</text><line style="stroke:#000D19;stroke-width:0.5;" x1="266" x2="527" y1="478.5491" y2="478.5491"/><text fill="#D9B8FF" font-family="sans-serif" font-size="14" font-weight="bold" lengthAdjust="spacing" textLength="119" x="276" y="500.5442">instance_cores</text><text fill="#D9B8FF" font-family="sans-serif" font-size="14" lengthAdjust="spacing" textLength="57" x="395" y="500.5442">: double</text><text fill="#D9B8FF" font-family="sans-serif" font-size="14" font-weight="bold" lengthAdjust="spacing" textLength="138" x="276" y="526.8411">instance_memory</text><text fill="#D9B8FF" font-family="sans-serif" font-size="14" lengthAdjust="spacing" textLength="57" x="414" y="526.8411">: double</text><text fill="#D9B8FF" font-family="sans-serif" font-size="14" font-weight="bold" lengthAdjust="spacing" textLength="123" x="276" y="553.1379">instance_status</text><text fill="#D9B8FF" font-family="sans-serif" font-size="14" lengthAdjust="spacing" textLength="118" x="399" y="553.1379">: instance_status</text><text fill="#D9B8FF" font-family="sans-serif" font-size="14" font-weight="bold" lengthAdjust="spacing" textLength="109" x="276" y="579.4348">instance_type</text><text fill="#D9B8FF" font-family="sans-serif" font-size="14" lengthAdjust="spacing" textLength="48" x="385" y="579.4348">: string</text></g><!--class resource--><g id="elem_resource"><rect codeLine="37" fill="#3D176E" height="310.7578" id="resource" rx="2.5" ry="2.5" style="stroke:#000D19;stroke-width:0.5;" width="227" x="143" y="7"/><ellipse cx="211.75" cy="26.8945" fill="#ADD1B2" rx="11" ry="11" style="stroke:#181818;stroke-width:1.0;"/><path d="M214.7188,32.5352 Q214.1406,32.832 213.5,32.9727 Q212.8594,33.1289 212.1563,33.1289 Q209.6563,33.1289 208.3281,31.4883 Q207.0156,29.832 207.0156,26.707 Q207.0156,23.582 208.3281,21.9258 Q209.6563,20.2695 212.1563,20.2695 Q212.8594,20.2695 213.5,20.4258 Q214.1563,20.582 214.7188,20.8789 L214.7188,23.5977 Q214.0938,23.0195 213.5,22.7539 Q212.9063,22.4727 212.2813,22.4727 Q210.9375,22.4727 210.25,23.5508 Q209.5625,24.6133 209.5625,26.707 Q209.5625,28.8008 210.25,29.8789 Q210.9375,30.9414 212.2813,30.9414 Q212.9063,30.9414 213.5,30.6758 Q214.0938,30.3945 214.7188,29.8164 L214.7188,32.5352 Z " fill="#000000"/><text fill="#D9B8FF" font-family="Helvetica" font-size="17" lengthAdjust="spacing" textLength="71" x="237.25" y="32.7798">resource</text><line style="stroke:#000D19;stroke-width:0.5;" x1="144" x2="369" y1="46.7891" y2="46.7891"/><text fill="#D9B8FF" font-family="sans-serif" font-size="14" font-weight="bold" lengthAdjust="spacing" textLength="29" x="154" y="68.7842">age</text><text fill="#D9B8FF" font-family="sans-serif" font-size="14" lengthAdjust="spacing" textLength="66" x="183" y="68.7842">: duration</text><text fill="#D9B8FF" font-family="sans-serif" font-size="14" font-weight="bold" lengthAdjust="spacing" textLength="43" x="154" y="95.0811">atime</text><text fill="#D9B8FF" font-family="sans-serif" font-size="14" lengthAdjust="spacing" textLength="70" x="197" y="95.0811">: datetime</text><text fill="#D9B8FF" font-family="sans-serif" font-size="14" font-weight="bold" lengthAdjust="spacing" textLength="43" x="154" y="121.3779">ctime</text><text fill="#D9B8FF" font-family="sans-serif" font-size="14" lengthAdjust="spacing" textLength="70" x="197" y="121.3779">: datetime</text><text fill="#D9B8FF" font-family="sans-serif" font-size="14" font-weight="bold" lengthAdjust="spacing" textLength="14" x="154" y="147.6748">id</text><text fill="#D9B8FF" font-family="sans-serif" font-size="14" lengthAdjust="spacing" textLength="48" x="168" y="147.6748">: string</text><text fill="#D9B8FF" font-family="sans-serif" font-size="14" font-weight="bold" lengthAdjust="spacing" textLength="33" x="154" y="173.9717">kind</text><text fill="#D9B8FF" font-family="sans-serif" font-size="14" lengthAdjust="spacing" textLength="48" x="187" y="173.9717">: string</text><text fill="#D9B8FF" font-family="sans-serif" font-size="14" font-weight="bold" lengthAdjust="spacing" textLength="90" x="154" y="200.2686">last_access</text><text fill="#D9B8FF" font-family="sans-serif" font-size="14" lengthAdjust="spacing" textLength="66" x="244" y="200.2686">: duration</text><text fill="#D9B8FF" font-family="sans-serif" font-size="14" font-weight="bold" lengthAdjust="spacing" textLength="90" x="154" y="226.5654">last_update</text><text fill="#D9B8FF" font-family="sans-serif" font-size="14" lengthAdjust="spacing" textLength="66" x="244" y="226.5654">: duration</text><text fill="#D9B8FF" font-family="sans-serif" font-size="14" font-weight="bold" lengthAdjust="spacing" textLength="48" x="154" y="252.8623">mtime</text><text fill="#D9B8FF" font-family="sans-serif" font-size="14" lengthAdjust="spacing" textLength="70" x="202" y="252.8623">: datetime</text><text fill="#D9B8FF" font-family="sans-serif" font-size="14" font-weight="bold" lengthAdjust="spacing" textLength="43" x="154" y="279.1592">name</text><text fill="#D9B8FF" font-family="sans-serif" font-size="14" lengthAdjust="spacing" textLength="48" x="197" y="279.1592">: string</text><text fill="#D9B8FF" font-family="sans-serif" font-size="14" font-weight="bold" lengthAdjust="spacing" textLength="34" x="154" y="305.4561">tags</text><text fill="#D9B8FF" font-family="sans-serif" font-size="14" lengthAdjust="spacing" textLength="171" x="188" y="305.4561">: dictionary[string, string]</text></g><!--reverse link digitalocean_resource to digitalocean_droplet--><g id="link_digitalocean_resource_digitalocean_droplet"><path codeLine="49" d="M145.1144,568.6921 C165.7544,609.3721 191.6,660.3 218.06,712.47 " fill="none" id="digitalocean_resource-backto-digitalocean_droplet" style="stroke:#FFAF37;stroke-width:2.0;"/><polygon fill="none" points="136.97,552.64,139.7637,571.4069,150.4651,565.9773,136.97,552.64" style="stroke:#FFAF37;stroke-width:2.0;"/></g><!--reverse link instance to digitalocean_droplet--><g id="link_instance_digitalocean_droplet"><path codeLine="50" d="M349.2632,608.0149 C329.9332,645.5749 314.87,674.82 295.53,712.4 " fill="none" id="instance-backto-digitalocean_droplet" style="stroke:#FFAF37;stroke-width:2.0;"/><polygon fill="none" points="357.5,592.01,343.9283,605.2693,354.5982,610.7604,357.5,592.01" style="stroke:#FFAF37;stroke-width:2.0;"/></g><!--reverse link resource to digitalocean_resource--><g id="link_resource_digitalocean_resource"><path codeLine="51" d="M189.0814,334.7908 C165.7414,394.1308 147.73,439.94 132.74,478.03 " fill="none" id="resource-backto-digitalocean_resource" style="stroke:#FFAF37;stroke-width:2.0;"/><polygon fill="none" points="195.67,318.04,183.4978,332.5947,194.6651,336.987,195.67,318.04" style="stroke:#FFAF37;stroke-width:2.0;"/></g><!--reverse link resource to instance--><g id="link_resource_instance"><path codeLine="52" d="M324.8812,334.7581 C341.5212,376.4581 352.13,403.04 366.2,438.31 " fill="none" id="resource-backto-instance" style="stroke:#FFAF37;stroke-width:2.0;"/><polygon fill="none" points="318.21,318.04,319.3085,336.9818,330.4539,332.5344,318.21,318.04" style="stroke:#FFAF37;stroke-width:2.0;"/></g><!--SRC=[XPFBRjim44Nt_We2sHanO2T87HVTf0Q2TXC4JNT188p8aKnO8eNXC87x-FTIbfHI3pihKNCFxzmXfPrMAB2i-21AB5CaDtDxRIeWACKTaNtRsiAIkCWooAxNG_7U6luGU80InJSiNf6rX27nSwVbtg1puYgIleBSvsIzKOqz4nWN93GSKTi2dBjZ9frwnYYCsgItMJOaXwONrsgr_eGZp992Qf7bSgbMco7oOQkpSxyJJ_eNYbLyQ0-MSHHprE98dKrP4r78qQ2TVZBZ8oYbJIvkejgF9XCPf5xzQGVAljLq1eMBspX6Gik72hUZgN1pgxBr9Fpz52phanDAvvgXi1B198fiLI2BtxFvl5qdQTZkgqGhDvz_3huKiZs_H426m9xmbAnBoF6_5XJjaj1lZwgkfjOMeVNixrIUu6ezIJm6ycGYcuxNnZ6O5kbU4cdRGChwjC1O2h-cfSEq5XxiZ_i6fHYg3tKYI2zhExBo1AojgIkiowO6ZFKwrEH4JQlUMOKBxHT2Bqv0ol2J3peS5L_LNWEbdEXZeEpV2aFUE6fPRmCwF3VQPSkyX56dR-VBdyLYCVabpTwlvmnppgVJXb3d-my0]--></g></svg>

<svg xmlns="http://www.w3.org/2000/svg" width="535" height="872" viewBox="0 0 535 872"><rect width="231" height="152.977" x="141" y="712.73" fill="#3D176E" rx="2.5" ry="2.5" style="stroke:#000d19;stroke-width:.5"/><circle cx="165" cy="732.625" r="11" fill="#ADD1B2" style="stroke:#181818;stroke-width:1"/><path d="M167.969 738.265q-.578.297-1.219.438-.64.156-1.344.156-2.5 0-3.828-1.64-1.312-1.657-1.312-4.782t1.312-4.781q1.328-1.656 3.828-1.656.703 0 1.344.156.656.156 1.219.453v2.719q-.625-.578-1.219-.844-.594-.281-1.219-.281-1.344 0-2.031 1.078-.687 1.062-.687 3.156t.687 3.172q.688 1.062 2.031 1.062.625 0 1.219-.265.594-.281 1.219-.86z"/><text x="186" y="738.51" fill="#D9B8FF" font-family="Helvetica" font-size="17" textLength="169">digitalocean_droplet</text><path d="M142 752.519h229" style="stroke:#000d19;stroke-width:.5"/><text x="152" y="774.514" fill="#D9B8FF" font-family="sans-serif" font-size="14" font-weight="bold" textLength="151">droplet_backup_ids</text><text x="303" y="774.514" fill="#D9B8FF" font-family="sans-serif" font-size="14" textLength="58">: string[]</text><text x="152" y="800.811" fill="#D9B8FF" font-family="sans-serif" font-size="14" font-weight="bold" textLength="131">droplet_features</text><text x="283" y="800.811" fill="#D9B8FF" font-family="sans-serif" font-size="14" textLength="58">: string[]</text><text x="152" y="827.108" fill="#D9B8FF" font-family="sans-serif" font-size="14" font-weight="bold" textLength="111">droplet_image</text><text x="263" y="827.108" fill="#D9B8FF" font-family="sans-serif" font-size="14" textLength="48">: string</text><text x="152" y="853.405" fill="#D9B8FF" font-family="sans-serif" font-size="14" font-weight="bold" textLength="72">is_locked</text><text x="224" y="853.405" fill="#D9B8FF" font-family="sans-serif" font-size="14" textLength="65">: boolean</text><rect width="223" height="74.086" x="7" y="478.2" fill="#3D176E" rx="2.5" ry="2.5" style="stroke:#000d19;stroke-width:.5"/><circle cx="22" cy="498.094" r="11" fill="#ADD1B2" style="stroke:#181818;stroke-width:1"/><path d="M24.969 503.735q-.578.297-1.219.438-.64.156-1.344.156-2.5 0-3.828-1.64-1.312-1.657-1.312-4.782t1.312-4.781q1.328-1.656 3.828-1.656.703 0 1.344.156.656.156 1.219.453v2.719q-.625-.579-1.219-.844-.594-.281-1.219-.281-1.343 0-2.031 1.078-.687 1.062-.687 3.156t.687 3.172q.688 1.062 2.031 1.062.625 0 1.219-.265.594-.281 1.219-.86z"/><text x="41" y="503.98" fill="#D9B8FF" font-family="Helvetica" font-size="17" textLength="181">digitalocean_resource</text><path d="M8 517.989h221" style="stroke:#000d19;stroke-width:.5"/><text x="18" y="539.984" fill="#D9B8FF" font-family="sans-serif" font-size="14" font-weight="bold" textLength="27">urn</text><text x="45" y="539.984" fill="#D9B8FF" font-family="sans-serif" font-size="14" textLength="48">: string</text><rect width="263" height="152.977" x="265" y="438.76" fill="#3D176E" rx="2.5" ry="2.5" style="stroke:#000d19;stroke-width:.5"/><circle cx="352.25" cy="458.654" r="11" fill="#ADD1B2" style="stroke:#181818;stroke-width:1"/><path d="M355.219 464.295q-.578.297-1.219.438-.64.156-1.344.156-2.5 0-3.828-1.64-1.312-1.657-1.312-4.782t1.312-4.781q1.328-1.656 3.828-1.656.703 0 1.344.156.656.156 1.219.453v2.719q-.625-.579-1.219-.844-.594-.281-1.219-.281-1.344 0-2.031 1.078-.687 1.062-.687 3.156t.687 3.172q.688 1.062 2.031 1.062.625 0 1.219-.265.594-.281 1.219-.86z"/><text x="377.75" y="464.54" fill="#D9B8FF" font-family="Helvetica" font-size="17" textLength="70">instance</text><path d="M266 478.549h261" style="stroke:#000d19;stroke-width:.5"/><text x="276" y="500.544" fill="#D9B8FF" font-family="sans-serif" font-size="14" font-weight="bold" textLength="119">instance_cores</text><text x="395" y="500.544" fill="#D9B8FF" font-family="sans-serif" font-size="14" textLength="57">: double</text><text x="276" y="526.841" fill="#D9B8FF" font-family="sans-serif" font-size="14" font-weight="bold" textLength="138">instance_memory</text><text x="414" y="526.841" fill="#D9B8FF" font-family="sans-serif" font-size="14" textLength="57">: double</text><text x="276" y="553.138" fill="#D9B8FF" font-family="sans-serif" font-size="14" font-weight="bold" textLength="123">instance_status</text><text x="399" y="553.138" fill="#D9B8FF" font-family="sans-serif" font-size="14" textLength="118">: instance_status</text><text x="276" y="579.435" fill="#D9B8FF" font-family="sans-serif" font-size="14" font-weight="bold" textLength="109">instance_type</text><text x="385" y="579.435" fill="#D9B8FF" font-family="sans-serif" font-size="14" textLength="48">: string</text><rect width="227" height="310.758" x="143" y="7" fill="#3D176E" rx="2.5" ry="2.5" style="stroke:#000d19;stroke-width:.5"/><circle cx="211.75" cy="26.895" r="11" fill="#ADD1B2" style="stroke:#181818;stroke-width:1"/><path d="M214.719 32.535q-.578.297-1.219.438-.64.156-1.344.156-2.5 0-3.828-1.64-1.312-1.657-1.312-4.782t1.312-4.781q1.328-1.656 3.828-1.656.703 0 1.344.156.656.156 1.219.453v2.719q-.625-.578-1.219-.844-.594-.281-1.219-.281-1.344 0-2.031 1.078-.687 1.062-.687 3.156t.687 3.172q.688 1.062 2.031 1.062.625 0 1.219-.265.594-.281 1.219-.86z"/><text x="237.25" y="32.78" fill="#D9B8FF" font-family="Helvetica" font-size="17" textLength="71">resource</text><path d="M144 46.789h225" style="stroke:#000d19;stroke-width:.5"/><text x="154" y="68.784" fill="#D9B8FF" font-family="sans-serif" font-size="14" font-weight="bold" textLength="29">age</text><text x="183" y="68.784" fill="#D9B8FF" font-family="sans-serif" font-size="14" textLength="66">: duration</text><text x="154" y="95.081" fill="#D9B8FF" font-family="sans-serif" font-size="14" font-weight="bold" textLength="43">atime</text><text x="197" y="95.081" fill="#D9B8FF" font-family="sans-serif" font-size="14" textLength="70">: datetime</text><text x="154" y="121.378" fill="#D9B8FF" font-family="sans-serif" font-size="14" font-weight="bold" textLength="43">ctime</text><text x="197" y="121.378" fill="#D9B8FF" font-family="sans-serif" font-size="14" textLength="70">: datetime</text><text x="154" y="147.675" fill="#D9B8FF" font-family="sans-serif" font-size="14" font-weight="bold" textLength="14">id</text><text x="168" y="147.675" fill="#D9B8FF" font-family="sans-serif" font-size="14" textLength="48">: string</text><text x="154" y="173.972" fill="#D9B8FF" font-family="sans-serif" font-size="14" font-weight="bold" textLength="33">kind</text><text x="187" y="173.972" fill="#D9B8FF" font-family="sans-serif" font-size="14" textLength="48">: string</text><text x="154" y="200.269" fill="#D9B8FF" font-family="sans-serif" font-size="14" font-weight="bold" textLength="90">last_access</text><text x="244" y="200.269" fill="#D9B8FF" font-family="sans-serif" font-size="14" textLength="66">: duration</text><text x="154" y="226.565" fill="#D9B8FF" font-family="sans-serif" font-size="14" font-weight="bold" textLength="90">last_update</text><text x="244" y="226.565" fill="#D9B8FF" font-family="sans-serif" font-size="14" textLength="66">: duration</text><text x="154" y="252.862" fill="#D9B8FF" font-family="sans-serif" font-size="14" font-weight="bold" textLength="48">mtime</text><text x="202" y="252.862" fill="#D9B8FF" font-family="sans-serif" font-size="14" textLength="70">: datetime</text><text x="154" y="279.159" fill="#D9B8FF" font-family="sans-serif" font-size="14" font-weight="bold" textLength="43">name</text><text x="197" y="279.159" fill="#D9B8FF" font-family="sans-serif" font-size="14" textLength="48">: string</text><text x="154" y="305.456" fill="#D9B8FF" font-family="sans-serif" font-size="14" font-weight="bold" textLength="34">tags</text><text x="188" y="305.456" fill="#D9B8FF" font-family="sans-serif" font-size="14" textLength="171">: dictionary[string, string]</text><g fill="none"><path d="M145.114 568.692c20.64 40.68 46.486 91.608 72.946 143.778" style="stroke:#ffaf37;stroke-width:2"/><path d="m136.97 552.64 2.794 18.767 10.701-5.43z" style="stroke:#ffaf37;stroke-width:2"/></g><path fill="none" d="M349.263 608.015c-19.33 37.56-34.393 66.805-53.733 104.385m61.97-120.39-13.572 13.26 10.67 5.49z" style="stroke:#ffaf37;stroke-width:2"/><g fill="none"><path d="M189.081 334.79c-23.34 59.34-41.351 105.15-56.341 143.24" style="stroke:#ffaf37;stroke-width:2"/><path d="m195.67 318.04-12.172 14.555 11.167 4.392z" style="stroke:#ffaf37;stroke-width:2"/></g><g fill="none"><path d="M324.881 334.758c16.64 41.7 27.249 68.282 41.319 103.552" style="stroke:#ffaf37;stroke-width:2"/><path d="m318.21 318.04 1.099 18.942 11.145-4.448z" style="stroke:#ffaf37;stroke-width:2"/></g></svg>
